packages/bpk-svgs/src/icons/lg/account-circle.svg

<svg viewBox="0 0 24 24" fill="none" xmlns="http://www.w3.org/2000/svg">
<path d="M22 12C22 17.5228 17.5228 22 12 22C6.47715 22 2 17.5228 2 12C2 6.47715 6.47715 2 12 2C17.5228 2 22 6.47715 22 12ZM6.20907 15.9753C7.47841 17.8027 9.5988 19 12.0002 19C14.4013 19 16.5214 17.803 17.7908 15.9761C18.2168 15.3631 17.9635 14.5411 17.2907 14.2137C15.6932 13.4363 13.8975 13 11.9994 13C10.1018 13 8.30659 13.4361 6.70943 14.213C6.03658 14.5404 5.78322 15.3623 6.20907 15.9753ZM10.9949 5C10.1699 5 9.49988 5.61778 9.49988 6.38106V8.69053C9.49988 9.96536 10.6199 11 11.9999 11C13.3799 11 14.4999 9.96536 14.4999 8.69053V6.38106C14.4999 5.61778 13.8299 5 13.0049 5H10.9949Z" fill="#111236"/>
</svg>

<svg xmlns="http://www.w3.org/2000/svg" viewBox="0 0 24 24"><path d="M22 12c0 5.523-4.477 10-10 10S2 17.523 2 12 6.477 2 12 2s10 4.477 10 10zM6.21 15.975A7.037 7.037 0 0 0 12 19a7.037 7.037 0 0 0 5.79-3.024c.427-.613.174-1.435-.5-1.762A12.06 12.06 0 0 0 12 13c-1.898 0-3.693.436-5.29 1.213-.673.327-.927 1.15-.5 1.762zM10.994 5C10.17 5 9.5 5.618 9.5 6.381v2.31C9.5 9.965 10.62 11 12 11s2.5-1.035 2.5-2.31V6.382C14.5 5.618 13.83 5 13.005 5h-2.01z"/></svg>
